; generated by PrusaSlicer 2.8.1+win64 on 2024-12-27 at 11:34:35 UTC

; 

; external perimeters extrusion width = 0.45mm
; perimeters extrusion width = 0.45mm
; infill extrusion width = 0.45mm
; solid infill extrusion width = 0.45mm
; top infill extrusion width = 0.40mm
; first layer extrusion width = 0.42mm

M190 S60 ; set bed temperature and wait for it to be reached
M104 S200 ; set temperature
;TYPE:Custom
G28 ; home all axes
G1 Z5 F5000 ; lift nozzle
M109 S200 ; set temperature and wait for it to be reached
G21 ; set units to millimeters
G90 ; use absolute coordinates
M82 ; use absolute distances for extrusion
G92 E0
; Filament gcode
M107
;LAYER_CHANGE
;Z:0.35
;HEIGHT:0.35
G1 E-2 F2400
G1 Z.35 F7800
G1 X70.364 Y70.925
G1 E0 F2400
;TYPE:Skirt/Brim
;WIDTH:0.42
G1 F1800
G1 X72.099 Y69.552 E.11104
G1 X75 Y68.828 E.26109
G1 X125 Y68.828 E2.77039
G1 X127.177 Y69.224 E2.88144
G1 X129.075 Y70.364 E2.99255
G1 X130.448 Y72.099 E3.10359
G1 X131.172 Y75 E3.25364
G1 X131.172 Y125 E5.76294
G1 X130.776 Y127.177 E5.87399
G1 X129.636 Y129.075 E5.9851
G1 X127.901 Y130.448 E6.09614
G1 X125 Y131.172 E6.24619
G1 X75 Y131.172 E8.75549
G1 X72.823 Y130.776 E8.86654
G1 X70.925 Y129.636 E8.97765
G1 X69.552 Y127.901 E9.08869
G1 X68.828 Y125 E9.23874
G1 X68.828 Y75 E11.74804
G1 X69.224 Y72.823 E11.85909
G1 X70.333 Y70.977 E11.96717
G1 E9.96717 F2400
G92 E0
G1 X70.333 Y70.977 F7800
G92 E0
G1 X124.1 Y124.1
G1 E2 F2400
;TYPE:Perimeter
;WIDTH:0.42
G1 F1800
G1 X75.9 Y124.1 E4.41896
G1 X75.9 Y75.9 E6.83792
G1 X124.1 Y75.9 E9.25688
G1 X124.1 Y100 E10.46636
G1 X124.1 Y124.04 E11.67283
G1 X124.1 Y124.04 F7800
G1 X124.445 Y124.445
G1 F1800
G1 X75.555 Y124.445 E14.12642
G1 X75.555 Y75.555 E16.58001
G1 X124.445 Y75.555 E19.0336
G1 X124.445 Y100 E20.26039
G1 X124.445 Y124.385 E21.48417
G1 X124.445 Y124.385 F7800
G1 X124.79 Y124.79
;TYPE:External perimeter
G1 F1800
G1 X75.21 Y124.79 E23.97238
G1 X75.21 Y75.21 E26.46059
G1 X124.79 Y75.21 E28.9488
G1 X124.79 Y100 E30.19291
G1 X124.79 Y124.73 E31.43401
G1 X124.394 Y124.789 F7800
G1 E29.43401 F2400
G92 E0
G1 X123.997 Y76.704 F7800
G1 E2 F2400
;TYPE:Solid infill
;WIDTH:0.421651
G1 F1800
G1 X123.451 Y76.158 E2.03894
G1 X122.961 Y76.158 E2.06365
G1 X123.842 Y77.039 E2.12648
G1 X123.842 Y77.529 E2.15119
G1 X122.471 Y76.158 E2.24896
G1 X121.981 Y76.158 E2.27367
G1 X123.842 Y78.019 E2.40638
G1 X123.842 Y78.509 E2.43109
G1 X121.491 Y76.158 E2.59875
G1 X121.001 Y76.158 E2.62346
G1 X123.842 Y78.999 E2.82606
G1 X123.842 Y79.489 E2.85077
G1 X120.511 Y76.158 E3.08831
G1 X120.021 Y76.158 E3.11302
G1 X123.842 Y79.979 E3.38551
G1 X123.842 Y80.469 E3.41022
G1 X119.531 Y76.158 E3.71765
G1 X119.041 Y76.158 E3.74236
G1 X123.842 Y80.959 E4.08474
G1 X123.842 Y81.45 E4.1095
G1 X118.55 Y76.158 E4.48689
G1 X118.06 Y76.158 E4.5116
G1 X123.842 Y81.94 E4.92393
G1 X123.842 Y82.43 E4.94864
G1 X117.57 Y76.158 E5.39592
G1 X117.08 Y76.158 E5.42063
G1 X123.842 Y82.92 E5.90285
G1 X123.842 Y83.41 E5.92756
G1 X116.59 Y76.158 E6.44472
G1 X116.1 Y76.158 E6.46943
G1 X123.842 Y83.9 E7.02154
G1 X123.842 Y84.39 E7.04625
G1 X115.61 Y76.158 E7.6333
G1 X115.12 Y76.158 E7.65801
G1 X123.842 Y84.88 E8.28
G1 X123.842 Y85.37 E8.30471
G1 X114.63 Y76.158 E8.96165
G1 X114.14 Y76.158 E8.98636
G1 X123.842 Y85.86 E9.67824
G1 X123.842 Y86.35 E9.70295
G1 X113.65 Y76.158 E10.42977
G1 X113.16 Y76.158 E10.45448
G1 X123.842 Y86.84 E11.21625
G1 X123.842 Y87.331 E11.24101
G1 X112.669 Y76.158 E12.03779
G1 X112.179 Y76.158 E12.0625
G1 X123.842 Y87.821 E12.89423
G1 X123.842 Y88.311 E12.91894
G1 X111.689 Y76.158 E13.78561
G1 X111.199 Y76.158 E13.81032
G1 X123.842 Y88.801 E14.71193
G1 X123.842 Y89.291 E14.73664
G1 X110.709 Y76.158 E15.6732
G1 X110.219 Y76.158 E15.69791
G1 X123.842 Y89.781 E16.66941
G1 X123.842 Y90.271 E16.69412
G1 X109.729 Y76.158 E17.70056
G1 X109.239 Y76.158 E17.72527
G1 X123.842 Y90.761 E18.76666
G1 X123.842 Y91.251 E18.79137
G1 X108.749 Y76.158 E19.8677
G1 X108.259 Y76.158 E19.89241
G1 X123.842 Y91.741 E21.00368
G1 X123.842 Y92.231 E21.02839
G1 X107.769 Y76.158 E22.17461
G1 X107.279 Y76.158 E22.19932
G1 X123.842 Y92.721 E23.38048
G1 X123.842 Y93.212 E23.40524
G1 X106.788 Y76.158 E24.62142
G1 X106.298 Y76.158 E24.64613
G1 X123.842 Y93.702 E25.89725
G1 X123.842 Y94.192 E25.92196
G1 X105.808 Y76.158 E27.20802
G1 X105.318 Y76.158 E27.23273
G1 X123.842 Y94.682 E28.55374
G1 X123.842 Y95.172 E28.57845
G1 X104.828 Y76.158 E29.9344
G1 X104.338 Y76.158 E29.95911
G1 X123.842 Y95.662 E31.35
G1 X123.842 Y96.152 E31.37471
G1 X103.848 Y76.158 E32.80055
G1 X103.358 Y76.158 E32.82526
G1 X123.842 Y96.642 E34.28604
G1 X123.842 Y97.132 E34.31075
G1 X102.868 Y76.158 E35.80647
G1 X102.378 Y76.158 E35.83118
G1 X123.842 Y97.622 E37.36185
G1 X123.842 Y98.112 E37.38656
G1 X101.888 Y76.158 E38.95217
G1 X101.398 Y76.158 E38.97688
G1 X123.842 Y98.602 E40.57744
G1 X123.842 Y99.093 E40.6022
G1 X100.908 Y76.158 E42.23773
G1 X100.417 Y76.158 E42.26249
G1 X123.842 Y99.583 E43.933
G1 X123.842 Y100.073 E43.95771
G1 X99.927 Y76.158 E45.66317
G1 X99.437 Y76.158 E45.68788
G1 X123.842 Y100.563 E47.42828
G1 X123.842 Y101.053 E47.45299
G1 X98.947 Y76.158 E49.22833
G1 X98.457 Y76.158 E49.25304
G1 X123.842 Y101.543 E51.06333
G1 X123.842 Y102.033 E51.08804
G1 X97.967 Y76.158 E52.93327
G1 X97.477 Y76.158 E52.95798
G1 X123.842 Y102.523 E54.83815
G1 X123.842 Y103.013 E54.86286
G1 X96.987 Y76.158 E56.77798
G1 X96.497 Y76.158 E56.80269
G1 X123.842 Y103.503 E58.75275
G1 X123.842 Y103.993 E58.77746
G1 X96.007 Y76.158 E60.76247
G1 X95.517 Y76.158 E60.78718
G1 X123.842 Y104.483 E62.80713
G1 X123.842 Y104.973 E62.83184
G1 X95.027 Y76.158 E64.88673
G1 X94.536 Y76.158 E64.91149
G1 X123.842 Y105.464 E67.0014
G1 X123.842 Y105.954 E67.02611
G1 X94.046 Y76.158 E69.15096
G1 X93.556 Y76.158 E69.17567
G1 X123.842 Y106.444 E71.33546
G1 X123.842 Y106.934 E71.36017
G1 X93.066 Y76.158 E73.55491
G1 X92.576 Y76.158 E73.57962
G1 X123.842 Y107.424 E75.8093
G1 X123.842 Y107.914 E75.83401
G1 X92.086 Y76.158 E78.09863
G1 X91.596 Y76.158 E78.12334
G1 X123.842 Y108.404 E80.42291
G1 X123.842 Y108.894 E80.44762
G1 X91.106 Y76.158 E82.78213
G1 X90.616 Y76.158 E82.80684
G1 X123.842 Y109.384 E85.1763
G1 X123.842 Y109.874 E85.20101
G1 X90.126 Y76.158 E87.60541
G1 X89.636 Y76.158 E87.63012
G1 X123.842 Y110.364 E90.06946
G1 X123.842 Y110.854 E90.09417
G1 X89.146 Y76.158 E92.56846
G1 X88.655 Y76.158 E92.59322
G1 X123.842 Y111.345 E95.10252
G1 X123.842 Y111.835 E95.12723
G1 X88.165 Y76.158 E97.67147
G1 X87.675 Y76.158 E97.69618
G1 X123.842 Y112.325 E100.27537
G1 X123.842 Y112.815 E100.30008
G1 X87.185 Y76.158 E102.91421
G1 X86.695 Y76.158 E102.93892
G1 X123.842 Y113.305 E105.58799
G1 X123.842 Y113.795 E105.6127
G1 X86.205 Y76.158 E108.29672
G1 X85.715 Y76.158 E108.32143
G1 X123.842 Y114.285 E111.04039
G1 X123.842 Y114.775 E111.0651
G1 X85.225 Y76.158 E113.81901
G1 X84.735 Y76.158 E113.84372
G1 X123.842 Y115.265 E116.63257
G1 X123.842 Y115.755 E116.65728
G1 X84.245 Y76.158 E119.48107
G1 X83.755 Y76.158 E119.50578
G1 X123.842 Y116.245 E122.36452
G1 X123.842 Y116.735 E122.38923
G1 X83.265 Y76.158 E125.28291
G1 X82.774 Y76.158 E125.30767
G1 X123.842 Y117.226 E128.23636
G1 X123.842 Y117.716 E128.26107
G1 X82.284 Y76.158 E131.22471
G1 X81.794 Y76.158 E131.24942
G1 X123.842 Y118.206 E134.248
G1 X123.842 Y118.696 E134.27271
G1 X81.304 Y76.158 E137.30623
G1 X80.814 Y76.158 E137.33094
G1 X123.842 Y119.186 E140.39941
G1 X123.842 Y119.676 E140.42412
G1 X80.324 Y76.158 E143.52753
G1 X79.834 Y76.158 E143.55224
G1 X123.842 Y120.166 E146.69059
G1 X123.842 Y120.656 E146.7153
G1 X79.344 Y76.158 E149.8886
G1 X78.854 Y76.158 E149.91331
G1 X123.842 Y121.146 E153.12155
G1 X123.842 Y121.636 E153.14626
G1 X78.364 Y76.158 E156.38945
G1 X77.874 Y76.158 E156.41416
G1 X123.842 Y122.126 E159.69229
G1 X123.842 Y122.616 E159.717
G1 X77.384 Y76.158 E163.03007
G1 X76.894 Y76.158 E163.05478
G1 X123.842 Y123.107 E166.40283
G1 X123.842 Y123.597 E166.42754
G1 X76.403 Y76.158 E169.81057
G1 X76.158 Y76.158 E169.82292
G1 X76.158 Y76.404 E169.83532
G1 X123.596 Y123.842 E173.21828
G1 X123.106 Y123.842 E173.24299
G1 X76.158 Y76.894 E176.59101
G1 X76.158 Y77.384 E176.61572
G1 X122.616 Y123.842 E179.92879
G1 X122.126 Y123.842 E179.9535
G1 X76.158 Y77.874 E183.23163
G1 X76.158 Y78.364 E183.25634
G1 X121.636 Y123.842 E186.49953
G1 X121.146 Y123.842 E186.52424
G1 X76.158 Y78.854 E189.73248
G1 X76.158 Y79.344 E189.75719
G1 X120.656 Y123.842 E192.93049
G1 X120.166 Y123.842 E192.9552
G1 X76.158 Y79.834 E196.09355
G1 X76.158 Y80.324 E196.11826
G1 X119.676 Y123.842 E199.22167
G1 X119.186 Y123.842 E199.24638
G1 X76.158 Y80.814 E202.31485
G1 X76.158 Y81.304 E202.33956
G1 X118.696 Y123.842 E205.37308
G1 X118.206 Y123.842 E205.39779
G1 X76.158 Y81.794 E208.39637
G1 X76.158 Y82.285 E208.42113
G1 X117.715 Y123.842 E211.3847
G1 X117.225 Y123.842 E211.40941
G1 X76.158 Y82.775 E214.33803
G1 X76.158 Y83.265 E214.36274
G1 X116.735 Y123.842 E217.25642
G1 X116.245 Y123.842 E217.28113
G1 X76.158 Y83.755 E220.13987
G1 X76.158 Y84.245 E220.16458
G1 X115.755 Y123.842 E222.98837
G1 X115.265 Y123.842 E223.01308
G1 X76.158 Y84.735 E225.80193
G1 X76.158 Y85.225 E225.82664
G1 X114.775 Y123.842 E228.58055
G1 X114.285 Y123.842 E228.60526
G1 X76.158 Y85.715 E231.32422
G1 X76.158 Y86.205 E231.34893
G1 X113.795 Y123.842 E234.03295
G1 X113.305 Y123.842 E234.05766
G1 X76.158 Y86.695 E236.70673
G1 X76.158 Y87.185 E236.73144
G1 X112.815 Y123.842 E239.34557
G1 X112.325 Y123.842 E239.37028
G1 X76.158 Y87.675 E241.94947
G1 X76.158 Y88.166 E241.97423
G1 X111.834 Y123.842 E244.5184
G1 X111.344 Y123.842 E244.54311
G1 X76.158 Y88.656 E247.05234
G1 X76.158 Y89.146 E247.07705
G1 X110.854 Y123.842 E249.55134
G1 X110.364 Y123.842 E249.57605
G1 X76.158 Y89.636 E252.01539
G1 X76.158 Y90.126 E252.0401
G1 X109.874 Y123.842 E254.4445
G1 X109.384 Y123.842 E254.46921
G1 X76.158 Y90.616 E256.83867
G1 X76.158 Y91.106 E256.86338
G1 X108.894 Y123.842 E259.19789
G1 X108.404 Y123.842 E259.2226
G1 X76.158 Y91.596 E261.52217
G1 X76.158 Y92.086 E261.54688
G1 X107.914 Y123.842 E263.8115
G1 X107.424 Y123.842 E263.83621
G1 X76.158 Y92.576 E266.06589
G1 X76.158 Y93.066 E266.0906
G1 X106.934 Y123.842 E268.28534
G1 X106.444 Y123.842 E268.31005
G1 X76.158 Y93.556 E270.46984
G1 X76.158 Y94.046 E270.49455
G1 X105.954 Y123.842 E272.6194
G1 X105.463 Y123.842 E272.64416
G1 X76.158 Y94.537 E274.734
G1 X76.158 Y95.027 E274.75871
G1 X104.973 Y123.842 E276.8136
G1 X104.483 Y123.842 E276.83831
G1 X76.158 Y95.517 E278.85826
G1 X76.158 Y96.007 E278.88297
G1 X103.993 Y123.842 E280.86798
G1 X103.503 Y123.842 E280.89269
G1 X76.158 Y96.497 E282.84275
G1 X76.158 Y96.987 E282.86746
G1 X103.013 Y123.842 E284.78258
G1 X102.523 Y123.842 E284.80729
G1 X76.158 Y97.477 E286.68746
G1 X76.158 Y97.967 E286.71217
G1 X102.033 Y123.842 E288.5574
G1 X101.543 Y123.842 E288.58211
G1 X76.158 Y98.457 E290.3924
G1 X76.158 Y98.947 E290.41711
G1 X101.053 Y123.842 E292.19245
G1 X100.563 Y123.842 E292.21716
G1 X76.158 Y99.437 E293.95756
G1 X76.158 Y99.927 E293.98227
G1 X100.073 Y123.842 E295.68773
G1 X99.582 Y123.842 E295.71249
G1 X76.158 Y100.418 E297.38293
G1 X76.158 Y100.908 E297.40764
G1 X99.092 Y123.842 E299.04314
G1 X98.602 Y123.842 E299.06785
G1 X76.158 Y101.398 E300.66841
G1 X76.158 Y101.888 E300.69312
G1 X98.112 Y123.842 E302.25873
G1 X97.622 Y123.842 E302.28344
G1 X76.158 Y102.378 E303.81411
G1 X76.158 Y102.868 E303.83882
G1 X97.132 Y123.842 E305.33454
G1 X96.642 Y123.842 E305.35925
G1 X76.158 Y103.358 E306.82003
G1 X76.158 Y103.848 E306.84474
G1 X96.152 Y123.842 E308.27058
G1 X95.662 Y123.842 E308.29529
G1 X76.158 Y104.338 E309.68618
G1 X76.158 Y104.828 E309.71089
G1 X95.172 Y123.842 E311.06684
G1 X94.682 Y123.842 E311.09155
G1 X76.158 Y105.318 E312.41256
G1 X76.158 Y105.808 E312.43727
G1 X94.192 Y123.842 E313.72333
G1 X93.701 Y123.842 E313.74809
G1 X76.158 Y106.299 E314.99914
G1 X76.158 Y106.789 E315.02385
G1 X93.211 Y123.842 E316.23996
G1 X92.721 Y123.842 E316.26467
G1 X76.158 Y107.279 E317.44583
G1 X76.158 Y107.769 E317.47054
G1 X92.231 Y123.842 E318.61676
G1 X91.741 Y123.842 E318.64147
G1 X76.158 Y108.259 E319.75274
G1 X76.158 Y108.749 E319.77745
G1 X91.251 Y123.842 E320.85378
G1 X90.761 Y123.842 E320.87849
G1 X76.158 Y109.239 E321.91988
G1 X76.158 Y109.729 E321.94459
G1 X90.271 Y123.842 E322.95103
G1 X89.781 Y123.842 E322.97574
G1 X76.158 Y110.219 E323.94724
G1 X76.158 Y110.709 E323.97195
G1 X89.291 Y123.842 E324.90851
G1 X88.801 Y123.842 E324.93322
G1 X76.158 Y111.199 E325.83483
G1 X76.158 Y111.689 E325.85954
G1 X88.311 Y123.842 E326.72621
G1 X87.821 Y123.842 E326.75092
G1 X76.158 Y112.18 E327.58261
G1 X76.158 Y112.67 E327.60732
G1 X87.33 Y123.842 E328.40403
G1 X86.84 Y123.842 E328.42874
G1 X76.158 Y113.16 E329.19051
G1 X76.158 Y113.65 E329.21522
G1 X86.35 Y123.842 E329.94204
G1 X85.86 Y123.842 E329.96675
G1 X76.158 Y114.14 E330.65863
G1 X76.158 Y114.63 E330.68334
G1 X85.37 Y123.842 E331.34028
G1 X84.88 Y123.842 E331.36499
G1 X76.158 Y115.12 E331.98698
G1 X76.158 Y115.61 E332.01169
G1 X84.39 Y123.842 E332.59874
G1 X83.9 Y123.842 E332.62345
G1 X76.158 Y116.1 E333.17556
G1 X76.158 Y116.59 E333.20027
G1 X83.41 Y123.842 E333.71743
G1 X82.92 Y123.842 E333.74214
G1 X76.158 Y117.08 E334.22436
G1 X76.158 Y117.57 E334.24907
G1 X82.43 Y123.842 E334.69635
G1 X81.94 Y123.842 E334.72106
G1 X76.158 Y118.06 E335.13339
G1 X76.158 Y118.551 E335.15815
G1 X81.449 Y123.842 E335.53547
G1 X80.959 Y123.842 E335.56018
G1 X76.158 Y119.041 E335.90256
G1 X76.158 Y119.531 E335.92727
G1 X80.469 Y123.842 E336.2347
G1 X79.979 Y123.842 E336.25941
G1 X76.158 Y120.021 E336.5319
G1 X76.158 Y120.511 E336.55661
G1 X79.489 Y123.842 E336.79415
G1 X78.999 Y123.842 E336.81886
G1 X76.158 Y121.001 E337.02146
G1 X76.158 Y121.491 E337.04617
G1 X78.509 Y123.842 E337.21383
G1 X78.019 Y123.842 E337.23854
G1 X76.158 Y121.981 E337.37125
G1 X76.158 Y122.471 E337.39596
G1 X77.529 Y123.842 E337.49373
G1 X77.039 Y123.842 E337.51844
G1 X76.158 Y122.961 E337.58127
G1 X76.158 Y123.451 E337.60598
G1 X76.704 Y123.997 E337.64492
;LAYER_CHANGE
;Z:0.65
;HEIGHT:0.3
G1 Z.65 F7800
G1 E335.64492 F2400
G92 E0
G1 X76.704 Y123.997 Z.65 F7800
G1 X124.004 Y124.004
G1 E2 F2400
;TYPE:Perimeter
;WIDTH:0.45
G1 F3600
G1 X75.996 Y124.004 E4.30902
G1 X75.996 Y75.996 E6.61804
G1 X124.004 Y75.996 E8.92706
G1 X124.004 Y100 E10.08157
G1 X124.004 Y123.944 E11.23319
G1 X124.004 Y123.944 F7800
G1 X124.389 Y124.389
G1 F3600
G1 X75.611 Y124.389 E13.57924
G1 X75.611 Y75.611 E15.92529
G1 X124.389 Y75.611 E18.27134
G1 X124.389 Y100 E19.44437
G1 X124.389 Y124.329 E20.61451
G1 X124.389 Y124.329 F7800
G1 X124.775 Y124.775
;TYPE:External perimeter
G1 F1800
G1 X75.225 Y124.775 E22.99769
G1 X75.225 Y75.225 E25.38087
G1 X124.775 Y75.225 E27.76405
G1 X124.775 Y100 E28.95564
G1 X124.775 Y124.715 E30.14435
G1 X124.379 Y124.774 F7800
G1 E28.14435 F2400
G92 E0
G1 X76.39 Y76.317 F7800
G1 E2 F2400
;TYPE:Solid infill
;WIDTH:0.543559
G1 F1200
G1 X76.348 Y76.274 E2.00359
G1 X76.29 Y76.29 E2.00719
G1 X76.274 Y76.348 E2.01079
G1 X76.317 Y76.39 E2.01438
G1 X76.375 Y76.375 E2.01796
;WIDTH:0.45
G1 X76.285 Y76.991 E2.0479
G1 X76.991 Y76.285 E2.09592
G1 X77.536 Y76.285 E2.12213
G1 X76.285 Y77.536 E2.20722
G1 X76.285 Y78.081 E2.23343
G1 X78.081 Y76.285 E2.35559
G1 X78.627 Y76.285 E2.38185
G1 X76.285 Y78.627 E2.54115
G1 X76.285 Y79.172 E2.56736
G1 X79.172 Y76.285 E2.76373
G1 X79.717 Y76.285 E2.78994
G1 X76.285 Y79.717 E3.02338
G1 X76.285 Y80.263 E3.04964
G1 X80.263 Y76.285 E3.32022
G1 X80.808 Y76.285 E3.34643
G1 X76.285 Y80.808 E3.65408
G1 X76.285 Y81.353 E3.68029
G1 X81.353 Y76.285 E4.02501
G1 X81.899 Y76.285 E4.05127
G1 X76.285 Y81.899 E4.43313
G1 X76.285 Y82.444 E4.45934
G1 X82.444 Y76.285 E4.87827
G1 X82.989 Y76.285 E4.90448
G1 X76.285 Y82.989 E5.36048
G1 X76.285 Y83.535 E5.38674
G1 X83.535 Y76.285 E5.87988
G1 X84.08 Y76.285 E5.90609
G1 X76.285 Y84.08 E6.4363
G1 X76.285 Y84.625 E6.46251
G1 X84.625 Y76.285 E7.02979
G1 X85.171 Y76.285 E7.05605
G1 X76.285 Y85.171 E7.66046
G1 X76.285 Y85.716 E7.68667
G1 X85.716 Y76.285 E8.32815
G1 X86.261 Y76.285 E8.35436
G1 X76.285 Y86.261 E9.03292
G1 X76.285 Y86.807 E9.05918
G1 X86.807 Y76.285 E9.77487
G1 X87.352 Y76.285 E9.80108
